X: 574
T: Dilkeşhâveran Seyir
C: Şefik Gürmeriç
O: Turkey
F: http://compmusic.upf.edu/node/140
N: dilkeshaveran--seyir--duyek--1--sefik_gurmeric
N: makam= dilkeshaveran
N: form= seyir
N: usul= duyek = 8/4
M: 8/4
L: 1/16
K: C _2/4B ^3/4f  
Q: 1/4=120
%%MIDI tuningsystem comma53
d6 e2 e8  | z2 e4 =f2 e2 d2 ^c2 d2  | \
w:   |   | 
e2 f2 g2 a=b a2 g2 f2 e2  | e6 d2 ed cd e4  | 
w:   |   | 
z2 e4 f2 g6 f2  | ag a=b a2 g2 f3e d4  | \
w:   |   | 
z2 d4 c2 d2 c2 d2 e2  | 
w:   | 
g2 =f2 e2 d2 c4 B4  | z2 d4 d2 A8  | \
w:   |   | 
z2 ed c2 B2 A2 G2 ^F2 ^E2  | ^F4 c2 _1/4BA A3G AG G^3/4F  | 
w:   |   | 
F16  | |


